X:1
T:Title
%%score { 1 | 2 }
L:1/8
Q:1/4=100
M:4/4
K:G
V:1 treble nm="Grand Piano"
V:2 bass 
V:1
 G>G G>G G2 D>D | [FA]>[FA] [FA]>[FA] [FA]2 z2 | [FA]>[FA] [FA]>[FA] [DFA]2 [DG]>[DFA] | %3
w: J.~A.~Durham * * * * * *|||
 [DGB]>[DGB] [DGB]>[DGB] [DGB]2 D2 | G>G G>B d2 d>[DB] | [EG]>[EG] [EG]>[CE] [B,D]3 D | %6
w: |||
 G>G G>B d3 [EGc] | [DGB]>[DGB] [CFA]>[CFA] G4 | G>G G>G G2[K:bass] (3G,,A,,B,, | %9
w: |||
 [FA]>[FA] [FA]>[FA] [FA]2[K:bass] (3D,E,F, |[M:3/4][K:treble] B>B B>c d2 |[M:1/4] [Ac]>[GB] | %12
w: |||
[M:4/4] [FA]>[FA] [FA]>[GB] [FA]2 z2 | G>G G>G G2 z2 | [FA]>[FA] [FA]>[FA] [FA]2 z2 | %15
w: |||
 B>B B>c d3 [EGc] | [DGB]>[DGB] [CFA]>[CFA] [B,DG]4 |] %17
w: ||
V:2
 [G,B,D]>[G,B,D] [G,B,D]>[G,B,D] [G,B,D]2 [G,B,]>[G,B,] | [D,D]>[D,D] [D,D]>[D,D] [D,D]2 z2 | %2
 [D,D]>[D,D] [D,D]>[D,D] D,>C, B,,>A,, | G,,>G,, G,,>G,, G,,2 [G,B,]2 | %4
 [G,B,D]>[G,B,D] [G,B,D]>[G,B,D] [G,B,G]2[K:bass] [G,,B,G]>[B,,G,] | %5
 [C,G,]>[C,C] [C,C]>[C,G,] [G,,G,]3 [G,B,] | [G,B,D]>[G,B,D] [G,B,D]>[G,DG] [G,B,G]3[K:bass] C, | %7
 D,>D, D,>D, [G,B,D]4 | [G,B,D]>[G,B,D] [G,B,D]>[G,B,D] [G,B,D]2 z2 | %9
 [D,D]>[D,D] [D,D]>[D,D] [D,D]2 z2 |[M:3/4][K:treble] [G,DG]>[G,DG] [G,DG]>[G,CG] [G,B,G]2 | %11
[M:1/4][K:bass] [F,D]>[F,D] |[M:4/4] [D,D]>[D,D] [D,D]>[D,D] [D,D]2 z2 | %13
 [G,B,D]>[G,B,D] [G,B,D]>[G,B,D] [G,B,D]2 z2 | [D,D]>[D,D] [D,D]>[D,D] [D,D]2 z2 | %15
 [G,DG]>[G,DG] [G,DG]>[G,A,G] [G,B,G]3[K:bass] C, | D,>D, D,>D, G,4 |] %17

